layouts/icon-pack/armor_circlet.svg

<?xml version="1.0" encoding="UTF-8"?>
<svg width="1200pt" height="1200pt" version="1.1" viewBox="0 0 1200 1200" xmlns="http://www.w3.org/2000/svg">
 <g fill="#fff">
  <path d="m1075.2 164.74c-16.102 1.8125-30.82 9.9648-40.898 22.652s-14.688 28.867-12.809 44.965c1.8789 16.094 10.09 30.777 22.816 40.805 4.1875 3.2305 7.207 7.7383 8.5977 12.84 1.3945 5.1016 1.082 10.516-0.88672 15.426-1.4531 3.5625-2.9609 7.0312-4.5234 10.406-56.484 122.18-205.88 169.78-320.02 98.438-48.023-30-79.453-73.477-99.164-110.62-2.0312-3.9531-2.5547-8.5078-1.4766-12.82 1.0742-4.3125 3.6836-8.0859 7.3359-10.617 14.691-9.6211 24.516-25.117 26.953-42.508 2.4414-17.391-2.7383-34.988-14.215-48.281-11.473-13.297-28.125-20.992-45.688-21.121-17.559-0.12891-34.32 7.3281-45.988 20.453s-17.105 30.645-14.918 48.07 11.785 33.059 26.332 42.895c3.5938 2.5117 6.1367 6.2578 7.1406 10.527 1.0039 4.2695 0.39844 8.7578-1.7031 12.605-19.688 37.312-51.211 81.188-99.562 111.4-114.14 71.32-263.53 23.719-320.02-98.438-1.5625-3.375-3.0703-6.8438-4.5234-10.406-1.9688-4.9102-2.2812-10.324-0.88672-15.426 1.3906-5.1016 4.4102-9.6094 8.5977-12.84 13.355-10.598 21.66-26.301 22.898-43.305 1.2422-17.004-4.6992-33.746-16.375-46.168s-28.023-19.383-45.07-19.199c-17.047 0.1875-33.234 7.5078-44.637 20.184-11.398 12.676-16.969 29.547-15.355 46.516 1.6094 16.973 10.258 32.492 23.844 42.793 8.2969 6.3867 13.426 16.055 14.062 26.508l22.336 340.27c0.78516 12.25 4.793 24.074 11.617 34.277s16.223 18.422 27.242 23.824c69.094 33.773 215.23 87.797 442.97 87.797h1.5c228.89 0 374.41-53.906 443.16-87.656 10.992-5.4141 20.359-13.633 27.156-23.828 6.7969-10.191 10.785-22 11.562-34.227l22.359-340.45c0.64062-10.457 5.7656-20.133 14.062-26.531 14.379-10.812 23.246-27.426 24.227-45.391 0.97656-17.965-6.0312-35.445-19.152-47.758-13.121-12.309-31.012-18.191-48.879-16.07z"/>
  <path d="m1030 765.26c-83.789 35.039-225.23 75.867-429.23 75.867h-1.5c-203.91 0-345.45-40.828-429.23-75.867-9.832-4.1055-21.086-2.8242-29.742 3.3828-8.6602 6.207-13.484 16.457-12.75 27.086l6.5156 99.234c1.6016 23.684 15.359 44.844 36.352 55.922 58.031 30.75 193.31 84.633 428.91 84.867h1.5c235.55-0.23438 370.83-54.117 428.91-84.867 21.012-11.09 34.773-32.285 36.352-55.992l6.5156-99.234c0.72266-10.641-4.125-20.895-12.805-27.09-8.6797-6.1992-19.953-7.4492-29.781-3.3086z"/>
 </g>
</svg>

<?xml version="1.0" encoding="UTF-8" standalone="no"?>
<!DOCTYPE svg PUBLIC "-//W3C//DTD SVG 1.1//EN" "http://www.w3.org/Graphics/SVG/1.1/DTD/svg11.dtd">
<svg width="100%" height="100%" viewBox="0 0 512 411" version="1.1" xmlns="http://www.w3.org/2000/svg" xmlns:xlink="http://www.w3.org/1999/xlink" xml:space="preserve" xmlns:serif="http://www.serif.com/" style="fill-rule:evenodd;clip-rule:evenodd;stroke-linejoin:round;stroke-miterlimit:2;">
    <g transform="matrix(1,0,0,1,-56.8781,-164.303)">
        <g transform="matrix(0.471255,0,0,0.471255,30.074,86.8746)">
            <path d="M1075.2,164.74C1059.1,166.553 1044.38,174.705 1034.3,187.392C1024.22,200.079 1019.61,216.259 1021.49,232.357C1023.37,248.451 1031.58,263.134 1044.31,273.162C1048.5,276.393 1051.52,280.9 1052.91,286.002C1054.3,291.104 1053.99,296.518 1052.02,301.428C1050.57,304.99 1049.06,308.459 1047.5,311.834C991.013,434.014 841.617,481.614 727.477,410.272C679.454,380.272 648.024,336.795 628.313,299.652C626.281,295.699 625.758,291.144 626.836,286.832C627.91,282.519 630.52,278.746 634.172,276.215C648.863,266.594 658.688,251.098 661.125,233.707C663.566,216.316 658.387,198.719 646.91,185.426C635.437,172.129 618.785,164.434 601.222,164.305C583.663,164.176 566.902,171.633 555.234,184.758C543.566,197.883 538.129,215.403 540.316,232.828C542.503,250.253 552.101,265.887 566.648,275.723C570.242,278.235 572.785,281.981 573.788,286.25C574.792,290.519 574.187,295.008 572.085,298.855C552.397,336.167 520.874,380.043 472.523,410.255C358.383,481.575 208.993,433.974 152.503,311.817C150.941,308.442 149.433,304.973 147.98,301.411C146.011,296.501 145.699,291.087 147.093,285.985C148.484,280.883 151.503,276.376 155.691,273.145C169.046,262.547 177.351,246.844 178.589,229.84C179.831,212.836 173.89,196.094 162.214,183.672C150.538,171.25 134.191,164.289 117.144,164.473C100.097,164.66 83.91,171.981 72.507,184.657C61.109,197.333 55.538,214.204 57.152,231.173C58.761,248.146 67.41,263.665 80.996,273.966C89.293,280.353 94.422,290.021 95.058,300.474L117.394,640.744C118.179,652.994 122.187,664.818 129.011,675.021C135.835,685.224 145.234,693.443 156.253,698.845C225.347,732.618 371.483,786.642 599.223,786.642L600.723,786.642C829.613,786.642 975.133,732.736 1043.88,698.986C1054.88,693.572 1064.24,685.353 1071.04,675.158C1077.84,664.967 1081.82,653.158 1082.6,640.931L1104.96,300.481C1105.6,290.024 1110.73,280.348 1119.02,273.95C1133.4,263.138 1142.27,246.524 1143.25,228.559C1144.23,210.594 1137.22,193.114 1124.1,180.801C1110.98,168.492 1093.09,162.61 1075.22,164.731L1075.2,164.74Z" style="fill:white;fill-rule:nonzero;"/>
            <path d="M1030,765.26C946.211,800.299 804.77,841.127 600.77,841.127L599.27,841.127C395.36,841.127 253.82,800.299 170.04,765.26C160.208,761.155 148.954,762.436 140.298,768.643C131.638,774.85 126.814,785.1 127.548,795.729L134.064,894.963C135.665,918.647 149.423,939.807 170.416,950.885C228.447,981.635 363.726,1035.52 599.326,1035.75L600.826,1035.75C836.376,1035.52 971.656,981.635 1029.74,950.885C1050.75,939.795 1064.51,918.6 1066.09,894.893L1072.6,795.659C1073.33,785.018 1068.48,774.764 1059.8,768.569C1051.12,762.37 1039.85,761.12 1030.02,765.26L1030,765.26Z" style="fill:white;fill-rule:nonzero;"/>
        </g>
    </g>
</svg>
